X:130
M:4/4
L:1/4
K:F
F2 c2 | A F G A | B2 A2 | F c A d | c B c2 | A4 | c c B A | A G F2 | !sintro!c2 A F | c B A G | A4 !eintro!|]
